Bloom-Colors/scalable/status/orientation-landscape-symbolic.svg

<svg width="16" height="16" version="1.1" xmlns="http://www.w3.org/2000/svg">
<path d="m2 13s-1 0-1-1v-8s0-1 1-1h12s1 0 1 1v8s0 1-1 1zm2-3h8l-4-4z" fill="#666"/>
</svg>

<svg xmlns="http://www.w3.org/2000/svg" width="16" height="16" version="1.1">
 <path style="fill:#444444" d="M 2,13 C 2,13 1,13 1,12 V 4 C 1,4 1,3 2,3 H 14 C 14,3 15,3 15,4 V 12 C 15,12 15,13 14,13 Z M 4,10 H 12 L 8,6 Z"/>
</svg>
